client-side/src/assets/icons/edit.svg

<svg height="512pt" viewBox="0 0 512 511" width="512pt" xmlns="http://www.w3.org/2000/svg"><path d="m405.332031 256.484375c-11.796875 0-21.332031 9.558594-21.332031 21.332031v170.667969c0 11.753906-9.558594 21.332031-21.332031 21.332031h-298.667969c-11.777344 0-21.332031-9.578125-21.332031-21.332031v-298.667969c0-11.753906 9.554687-21.332031 21.332031-21.332031h170.667969c11.796875 0 21.332031-9.558594 21.332031-21.332031 0-11.777344-9.535156-21.335938-21.332031-21.335938h-170.667969c-35.285156 0-64 28.714844-64 64v298.667969c0 35.285156 28.714844 64 64 64h298.667969c35.285156 0 64-28.714844 64-64v-170.667969c0-11.796875-9.539063-21.332031-21.335938-21.332031zm0 0"/><path d="m200.019531 237.050781c-1.492187 1.492188-2.496093 3.390625-2.921875 5.4375l-15.082031 75.4375c-.703125 3.496094.40625 7.101563 2.921875 9.640625 2.027344 2.027344 4.757812 3.113282 7.554688 3.113282.679687 0 1.386718-.0625 2.089843-.210938l75.414063-15.082031c2.089844-.429688 3.988281-1.429688 5.460937-2.925781l168.789063-168.789063-75.414063-75.410156zm0 0"/><path d="m496.382812 16.101562c-20.796874-20.800781-54.632812-20.800781-75.414062 0l-29.523438 29.523438 75.414063 75.414062 29.523437-29.527343c10.070313-10.046875 15.617188-23.445313 15.617188-37.695313s-5.546875-27.648437-15.617188-37.714844zm0 0"/></svg>

<svg xmlns="http://www.w3.org/2000/svg" viewBox="0 0 512 511" width="20" height="20">
	<style>
		tspan { white-space:pre }
		.shp0 { fill: #ffffff } 
	</style>
	<path id="Layer" class="shp0" d="M405.33 256.48C393.54 256.48 384 266.04 384 277.82L384 448.48C384 460.24 374.44 469.82 362.67 469.82L64 469.82C52.22 469.82 42.67 460.24 42.67 448.48L42.67 149.82C42.67 138.06 52.22 128.48 64 128.48L234.67 128.48C246.46 128.48 256 118.93 256 107.15C256 95.37 246.46 85.82 234.67 85.82L64 85.82C28.71 85.82 0 114.53 0 149.82L0 448.48C0 483.77 28.71 512.48 64 512.48L362.67 512.48C397.95 512.48 426.67 483.77 426.67 448.48L426.67 277.82C426.67 266.02 417.13 256.48 405.33 256.48ZM200.02 237.05C198.53 238.54 197.52 240.44 197.1 242.49L182.02 317.93C181.31 321.42 182.42 325.03 184.94 327.57C186.96 329.59 189.7 330.68 192.49 330.68C193.17 330.68 193.88 330.62 194.58 330.47L270 315.39C272.09 314.96 273.98 313.96 275.46 312.46L444.25 143.67L368.83 68.26L200.02 237.05ZM496.38 16.1C475.59 -4.7 441.75 -4.7 420.97 16.1L391.45 45.63L466.86 121.04L496.38 91.51C506.45 81.46 512 68.07 512 53.82C512 39.57 506.45 26.17 496.38 16.1Z" />
</svg>
